paymentMethods/xrp.svg

<svg width="128" height="64" viewBox="0 0 128 64" fill="none" xmlns="http://www.w3.org/2000/svg">
<rect width="128" height="64" rx="6" fill="white"/>
<path d="M104.211 24.7308C104.847 24.737 105.476 24.8687 106.06 25.1185C106.628 25.3382 107.148 25.6648 107.593 26.0805C108.031 26.484 108.383 26.9726 108.627 27.5164C108.876 28.0698 109.004 28.6706 109 29.2777C108.996 29.8848 108.862 30.484 108.605 31.0343C108.353 31.578 107.996 32.0661 107.553 32.4702C107.103 32.8973 106.579 33.2391 106.006 33.4789C105.404 33.7177 104.762 33.8395 104.115 33.8378H98.5075V39.7177H96.5332V24.7308H104.211ZM104.118 31.9999C104.503 32.0017 104.885 31.9286 105.242 31.7845C105.59 31.6506 105.91 31.4508 106.182 31.1958C106.449 30.9503 106.664 30.6537 106.814 30.3235C106.97 29.9862 107.048 29.6182 107.044 29.2466C107.045 28.8857 106.967 28.5289 106.814 28.202C106.662 27.8741 106.447 27.579 106.182 27.3333C105.91 27.0784 105.59 26.8785 105.242 26.7446C104.884 26.6035 104.503 26.5316 104.118 26.5328H98.5075V31.9999H104.118Z" fill="#23292F"/>
<path d="M82.1925 33.863C82.6737 33.859 83.1502 33.9581 83.5898 34.1538C84.0295 34.3495 84.4221 34.6371 84.7411 34.9973L88.8154 39.7178H91.3569L85.7786 33.1774C85.4602 32.8121 85.0667 32.5201 84.6249 32.3212C84.1832 32.1223 83.7036 32.0213 83.2191 32.0251H79.3566V26.5688H84.9673C85.7319 26.5681 86.4687 26.8552 87.0313 27.3729V27.3729C87.2974 27.6091 87.5103 27.899 87.656 28.2236C87.8119 28.561 87.8904 28.9289 87.8857 29.3005C87.8888 29.672 87.8104 30.0396 87.656 30.3774C87.565 30.5695 87.4517 30.7503 87.3185 30.9159L88.6036 32.3518L88.6503 32.3015C89.0275 31.9007 89.327 31.4333 89.5333 30.9231C89.7553 30.4124 89.8678 29.8609 89.8636 29.3041C89.8698 28.7048 89.7473 28.1111 89.5046 27.5631C89.2597 27.0201 88.9082 26.5318 88.4708 26.1273C88.0216 25.7128 87.5027 25.381 86.938 25.1473C86.3522 24.8972 85.7227 24.7654 85.0858 24.7596H78.3659C78.2334 24.7568 78.1017 24.7805 77.9784 24.8292C77.8551 24.8779 77.7428 24.9506 77.648 25.0432C77.5586 25.1231 77.4871 25.2211 77.4382 25.3306C77.3894 25.4401 77.3642 25.5587 77.3644 25.6786V39.7178H79.3387V33.863H82.1925Z" fill="#23292F"/>
<path d="M70.3429 24.7308H72.9132L67.561 30.1369C67.1036 30.6024 66.558 30.9721 65.9562 31.2245C65.3544 31.4769 64.7083 31.6069 64.0556 31.6069C63.403 31.6069 62.757 31.4769 62.1551 31.2245C61.5533 30.9721 61.0077 30.6024 60.5503 30.1369L55.2017 24.7308H57.7755L61.8534 28.8374C62.1401 29.1293 62.4815 29.3617 62.8581 29.5215C63.2347 29.6812 63.6391 29.7652 64.0482 29.7685C64.4573 29.7719 64.863 29.6945 65.2422 29.5409C65.6213 29.3873 65.9665 29.1604 66.2579 28.8733L66.2938 28.8374L70.3429 24.7308ZM57.7432 39.7679H55.1694L60.5539 34.326C61.0118 33.8614 61.5575 33.4924 62.1593 33.2406C62.7611 32.9887 63.4069 32.859 64.0592 32.859C64.7116 32.859 65.3574 32.9887 65.9592 33.2406C66.561 33.4924 67.1067 33.8614 67.5646 34.326L72.9491 39.7679H70.3788L66.2795 35.6291C65.6994 35.0403 64.9093 34.7059 64.0828 34.6991C63.2563 34.6924 62.4609 35.0139 61.8713 35.5932L61.839 35.6291L57.7432 39.7679Z" fill="#23292F"/>
<path d="M34.2561 16.7439C31.2387 16.7439 28.2891 17.6387 25.7803 19.315C23.2714 20.9914 21.316 23.374 20.1613 26.1617C19.0066 28.9494 18.7045 32.0169 19.2931 34.9763C19.8818 37.9357 21.3348 40.6541 23.4684 42.7877C25.602 44.9213 28.3204 46.3743 31.2798 46.9629C34.2392 47.5516 37.3067 47.2495 40.0943 46.0948C42.882 44.9401 45.2647 42.9847 46.9411 40.4758C48.6174 37.967 49.5122 35.0173 49.5122 32C49.5122 27.9538 47.9048 24.0734 45.0438 21.2123C42.1827 18.3512 38.3023 16.7439 34.2561 16.7439V16.7439ZM27.2921 23.453L31.7936 28.1195C32.1105 28.453 32.4919 28.7185 32.9146 28.8999C33.3373 29.0814 33.7925 29.1749 34.2525 29.1749C34.7125 29.1749 35.1677 29.0814 35.5904 28.8999C36.0131 28.7185 36.3945 28.453 36.7114 28.1195L41.2165 23.453H44.0631L38.1365 29.5985C37.6367 30.1259 37.0347 30.5459 36.3673 30.8329C35.6998 31.1199 34.9809 31.268 34.2543 31.268C33.5277 31.268 32.8088 31.1199 32.1413 30.8329C31.4738 30.5459 30.8719 30.1259 30.3721 29.5985L24.4455 23.453H27.2921ZM41.2595 40.547L36.7258 35.8373C36.4086 35.5038 36.0269 35.2382 35.6039 35.0567C35.1808 34.8753 34.7254 34.7817 34.2651 34.7817C33.8048 34.7817 33.3493 34.8753 32.9263 35.0567C32.5033 35.2382 32.1216 35.5038 31.8043 35.8373L27.2562 40.547H24.4096L30.3721 34.3584C30.8727 33.8318 31.4752 33.4126 32.1429 33.1261C32.8106 32.8396 33.5295 32.6919 34.2561 32.6919C34.9826 32.6919 35.7016 32.8396 36.3693 33.1261C37.037 33.4126 37.6395 33.8318 38.1401 34.3584L44.1061 40.547H41.2595Z" fill="#23292F"/>
</svg>

<svg xmlns="http://www.w3.org/2000/svg" width="128" height="64" fill="none"><rect width="128" height="64" fill="#fff" rx="6"/><path fill="#23292F" d="M104.211 24.73a4.823 4.823 0 0 1 1.849.389c.568.22 1.088.546 1.533.962.438.403.79.892 1.034 1.435a4.226 4.226 0 0 1-.022 3.518 4.509 4.509 0 0 1-1.052 1.436c-.45.427-.974.77-1.547 1.009a5.093 5.093 0 0 1-1.891.359h-5.608v5.88h-1.974V24.73h7.678Zm-.093 7.27c.385.002.767-.071 1.124-.215.348-.134.668-.334.94-.59.267-.245.482-.541.632-.872a2.5 2.5 0 0 0 .23-1.076 2.448 2.448 0 0 0-.23-1.045 2.78 2.78 0 0 0-.632-.869 3.038 3.038 0 0 0-2.064-.8h-5.61V32h5.61ZM82.192 33.863a3.367 3.367 0 0 1 2.55 1.134l4.073 4.72h2.542l-5.578-6.54a3.36 3.36 0 0 0-2.56-1.152h-3.862V26.57h5.61c.765 0 1.502.286 2.064.804.266.236.48.526.625.85.156.338.234.706.23 1.078a2.54 2.54 0 0 1-.23 1.076 2.711 2.711 0 0 1-.338.539l1.286 1.436.046-.05c.377-.401.677-.869.883-1.379.222-.51.335-1.062.33-1.619a4.192 4.192 0 0 0-.358-1.74 4.444 4.444 0 0 0-1.034-1.437 5.183 5.183 0 0 0-1.533-.98 4.83 4.83 0 0 0-1.852-.387h-6.72a.997.997 0 0 0-.718.283.85.85 0 0 0-.284.636v14.039h1.975v-5.855h2.853ZM70.343 24.73h2.57l-5.352 5.407a4.915 4.915 0 0 1-7.01 0L55.2 24.73h2.575l4.077 4.106a3.112 3.112 0 0 0 4.405.036l.036-.036 4.049-4.106Zm-12.6 15.038H55.17l5.385-5.442a4.921 4.921 0 0 1 7.01 0l5.385 5.442h-2.57l-4.1-4.139a3.12 3.12 0 0 0-4.408-.036l-.032.036-4.096 4.139ZM34.256 16.744a15.256 15.256 0 1 0 0 30.512 15.256 15.256 0 0 0 0-30.512Zm-6.964 6.709 4.502 4.666a3.391 3.391 0 0 0 4.917 0l4.506-4.666h2.846l-5.927 6.146a5.348 5.348 0 0 1-7.764 0l-5.927-6.146h2.847ZM41.26 40.547l-4.534-4.71a3.397 3.397 0 0 0-4.922 0l-4.548 4.71H24.41l5.962-6.189a5.358 5.358 0 0 1 7.768 0l5.966 6.189H41.26Z"/></svg>
